packages/astro-components-stencil/src/icons/cast-connected.svg

<svg xmlns="http://www.w3.org/2000/svg" viewBox="0 0 24 24"><g xmlns="http://www.w3.org/2000/svg" id="cast-connected" fill-rule="nonzero">
            <path d="M19 16V8c0-.55-.45-1-1-1H6c-.55 0-1 .45-1 1v.63c3.96 1.28 7.09 4.41 8.37 8.37H18c.55 0 1-.45 1-1zm2-13H3c-1.1 0-2 .9-2 2v2c0 .55.45 1 1 1s1-.45 1-1V6c0-.55.45-1 1-1h16c.55 0 1 .45 1 1v12c0 .55-.45 1-1 1h-5c-.55 0-1 .45-1 1s.45 1 1 1h6c1.1 0 2-.9 2-2V5c0-1.1-.9-2-2-2zM1 18v3h3a2.99 2.99 0 00-3-3zm1.14-3.91c-.6-.1-1.14.39-1.14 1 0 .49.36.9.85.98 2.08.36 3.72 2 4.08 4.08.08.49.49.85.98.85.61 0 1.09-.54 1-1.14a6.997 6.997 0 00-5.77-5.77zm-.04-4.04c-.59-.05-1.1.41-1.1 1 0 .51.38.94.88.99 4.27.41 7.67 3.81 8.08 8.08.05.5.48.87.99.87.6 0 1.06-.52 1-1.11-.53-5.19-4.66-9.31-9.85-9.83z"/>
        </g></svg>

<svg width="24" height="24" viewBox="0 0 24 24" fill="none" xmlns="http://www.w3.org/2000/svg">
<path fill-rule="evenodd" clip-rule="evenodd" d="M21 3H3C1.9 3 1 3.9 1 5V7C1 7.55 1.45 8 2 8C2.55 8 3 7.55 3 7V6C3 5.45 3.45 5 4 5H20C20.55 5 21 5.45 21 6V18C21 18.55 20.55 19 20 19H15C14.45 19 14 19.45 14 20C14 20.55 14.45 21 15 21H21C22.1 21 23 20.1 23 19V5C23 3.9 22.1 3 21 3ZM19 16V8C19 7.45 18.55 7 18 7H6C5.45 7 5 7.45 5 8V8.63C8.96 9.91 12.09 13.04 13.37 17H18C18.55 17 19 16.55 19 16ZM1 21V18C2.04 18 2.95 18.52 3.49 19.32C3.81 19.8 4 20.38 4 21H1ZM2.14 14.09C1.54 13.99 1 14.48 1 15.09C1 15.58 1.36 15.99 1.85 16.07C3.93 16.43 5.57 18.07 5.93 20.15C6.01 20.64 6.42 21 6.91 21C7.52 21 8 20.46 7.91 19.86C7.43 16.9 5.09 14.57 2.14 14.09ZM1 11.05C1 10.46 1.51 10 2.1 10.05C7.29 10.57 11.42 14.69 11.95 19.88C12.01 20.47 11.55 20.99 10.95 20.99C10.44 20.99 10.01 20.62 9.96 20.12C9.55 15.85 6.15 12.45 1.88 12.04C1.38 11.99 1 11.56 1 11.05Z" fill="black"/>
</svg>
